src/pos-icons/tow-truck.svg

<svg height="24" viewBox="0 0 24 24" width="24" xmlns="http://www.w3.org/2000/svg"><path d="m15 10h5.39l-3.33-4h-2.06zm2.5 8.5c.39 0 .74-.13 1.04-.43s.46-.65.46-1.07c0-.39-.16-.74-.46-1.04s-.65-.46-1.04-.46c-.42 0-.77.16-1.07.46s-.43.65-.43 1.04c0 .42.13.77.43 1.07s.65.43 1.07.43m-11.5 0c.44 0 .8-.13 1.08-.43s.42-.65.42-1.07c0-.39-.14-.74-.42-1.04s-.64-.46-1.08-.46-.8.16-1.08.46-.42.65-.42 1.04c0 .42.14.77.42 1.07s.64.43 1.08.43m12-14.5 5 6v7h-2.5c0 .83-.31 1.53-.91 2.13-.59.59-1.29.87-2.09.87-.83 0-1.53-.28-2.12-.87-.6-.6-.88-1.3-.88-2.13h-5.5c0 .83-.3 1.53-.89 2.13-.61.59-1.3.87-2.11.87s-1.5-.28-2.11-.87c-.59-.6-.89-1.3-.89-2.13h-2v-4h8.19l-6.19-4.89v2.89h-2v-6h1l11 6.06v-7.06z"/></svg>

<?xml version="1.0" encoding="UTF-8"?><!DOCTYPE svg PUBLIC "-//W3C//DTD SVG 1.1//EN" "http://www.w3.org/Graphics/SVG/1.1/DTD/svg11.dtd"><svg xmlns="http://www.w3.org/2000/svg" xmlns:xlink="http://www.w3.org/1999/xlink" version="1.1" id="mdi-tow-truck" width="24" height="24" viewBox="0 0 24 24"><path d="M15,10H20.39L17.06,6H15V10M17.5,18.5C17.89,18.5 18.24,18.37 18.54,18.07C18.84,17.77 19,17.42 19,17C19,16.61 18.84,16.26 18.54,15.96C18.24,15.66 17.89,15.5 17.5,15.5C17.08,15.5 16.73,15.66 16.43,15.96C16.13,16.26 16,16.61 16,17C16,17.42 16.13,17.77 16.43,18.07C16.73,18.37 17.08,18.5 17.5,18.5M6,18.5C6.44,18.5 6.8,18.37 7.08,18.07C7.36,17.77 7.5,17.42 7.5,17C7.5,16.61 7.36,16.26 7.08,15.96C6.8,15.66 6.44,15.5 6,15.5C5.56,15.5 5.2,15.66 4.92,15.96C4.64,16.26 4.5,16.61 4.5,17C4.5,17.42 4.64,17.77 4.92,18.07C5.2,18.37 5.56,18.5 6,18.5M18,4L23,10V17H20.5C20.5,17.83 20.19,18.53 19.59,19.13C19,19.72 18.3,20 17.5,20C16.67,20 15.97,19.72 15.38,19.13C14.78,18.53 14.5,17.83 14.5,17H9C9,17.83 8.7,18.53 8.11,19.13C7.5,19.72 6.81,20 6,20C5.19,20 4.5,19.72 3.89,19.13C3.3,18.53 3,17.83 3,17H1V13H9.19L3,8.11V11H1V5H2L13,11.06V4H18Z" /></svg>
